flaticon/essential/file-2.svg

<svg xmlns="http://www.w3.org/2000/svg" width="32" height="32" viewBox="0 0 24 24">
    <path d="M 21.484375 23.316406 L 20.398438 22.234375 L 20.398438 8.234375 L 20.203125 8.035156 L 18.398438 6.234375 L 18.398438 0 L 2.398438 0 L 2.398438 20.800781 L 4.398438 20.800781 L 4.398438 22.800781 L 19.835938 22.800781 L 20.917969 23.882812 C 20.996094 23.960938 21.097656 24 21.199219 24 C 21.300781 24 21.40625 23.960938 21.484375 23.882812 C 21.640625 23.726562 21.640625 23.472656 21.484375 23.316406 Z M 19.035156 8 L 14.398438 8 L 14.398438 3.367188 L 18.398438 7.367188 Z M 3.199219 20 L 3.199219 0.800781 L 17.601562 0.800781 L 17.601562 5.433594 L 14.363281 2.199219 L 14.164062 2 L 4.398438 2 L 4.398438 20 Z M 5.199219 22 L 5.199219 2.800781 L 13.601562 2.800781 L 13.601562 8.800781 L 19.601562 8.800781 L 19.601562 21.433594 L 16.59375 18.429688 C 17.289062 17.605469 17.710938 16.542969 17.710938 15.382812 C 17.710938 12.773438 15.589844 10.648438 12.980469 10.648438 C 10.371094 10.648438 8.25 12.773438 8.25 15.382812 C 8.25 17.988281 10.371094 20.113281 12.980469 20.113281 C 14.140625 20.113281 15.203125 19.691406 16.027344 18.996094 L 19.035156 22 Z M 12.980469 19.3125 C 10.8125 19.3125 9.050781 17.546875 9.050781 15.382812 C 9.050781 13.214844 10.8125 11.449219 12.980469 11.449219 C 15.148438 11.449219 16.914062 13.214844 16.914062 15.382812 C 16.914062 17.546875 15.148438 19.3125 12.980469 19.3125 Z M 12.980469 19.3125"/>
    <path d="M10.648438 14.398438L13.050781 14.398438C13.269531 14.398438 13.449219 14.222656 13.449219 14 13.449219 13.777344 13.269531 13.601562 13.050781 13.601562L10.648438 13.601562C10.429688 13.601562 10.25 13.777344 10.25 14 10.25 14.222656 10.429688 14.398438 10.648438 14.398438zM15.449219 16L10.648438 16C10.429688 16 10.25 16.179688 10.25 16.398438 10.25 16.621094 10.429688 16.800781 10.648438 16.800781L15.449219 16.800781C15.671875 16.800781 15.851562 16.621094 15.851562 16.398438 15.851562 16.179688 15.671875 16 15.449219 16zM15.449219 16"/>
</svg>

<svg xmlns="http://www.w3.org/2000/svg" width="32" height="32" viewBox="0 0 24 24">
    <path d="M21.484 23.316l-1.086-1.082v-14l-.195-.199-1.805-1.8V0h-16v20.8h2v2h15.438l1.082 1.083c.078.078.18.117.281.117a.4.4 0 0 0 .285-.684zM19.035 8h-4.637V3.367l4 4zM3.2 20V.8h14.403v4.634l-3.239-3.235L14.164 2H4.398v18zm2 2V2.8h8.403v6h6v12.634l-3.008-3.004a4.711 4.711 0 0 0 1.117-3.047 4.738 4.738 0 0 0-4.73-4.735 4.738 4.738 0 0 0-4.731 4.735 4.737 4.737 0 0 0 4.73 4.73c1.16 0 2.223-.422 3.047-1.117L19.035 22zm7.781-2.688a3.935 3.935 0 0 1-3.93-3.93 3.936 3.936 0 0 1 3.93-3.933 3.94 3.94 0 0 1 3.934 3.934 3.939 3.939 0 0 1-3.934 3.93zm0 0"/>
    <path d="M10.648 14.398h2.403a.398.398 0 1 0 0-.796h-2.403a.398.398 0 1 0 0 .796zm0 0M15.45 16h-4.802a.4.4 0 0 0 0 .8h4.801a.401.401 0 0 0 0-.8zm0 0"/>
</svg>
